**kern	**kern	**dynam
*part1	*part1	*part1
*staff2	*staff1	*
*I"Piano	*	*
*clefF4	*clefG2	*
*k[f#c#g#d#]	*k[f#c#g#d#]	*
=1	=1	=1
8B] 8d#]	16b'LL)	<
.	16b' 16cc#	.
8r	16b' 16cc#	.
.	16b' 16cc#	.
8r	16b' 16cc#	.
.	16b'JJ 16cc#	mp
=	=	=
(4.e#X	16bLL 16cc#	[
.	16g# 16b 16cc#	.
.	16g# 16b 16cc#	.
.	16g# 16b 16cc#	.
.	16g# 16b 16cc#	.
.	16g#JJ 16b 16cc#	.
=	=	=
*^	*	*
8ryy	8g#L	16aLL 16cc#	.
.	.	16a 16cc#	.
[4f#	8f#	16a 16cc#	.
.	.	16a 16cc#	.
.	8enJ	16a 16cc#	.
.	.	16aJJ 16cc#	.
*v	*v	*	*
=	=	=
4.d# 4.f#]	16aLL 16b	.
.	16a 16b	.
.	16a 16b	.
.	16a 16b	.
.	16a 16b	.
.	16aJJ 16b	.
=	=	=
*^	*	*
([4.e)	4e	16g#LL 16b	.
.	.	16g# 16b	.
.	.	16g# 16b	.
.	.	16g# 16b	.
.	[8B	16g# 16b	.
.	.	16g#JJ 16b	.
=	=	=	=
*	*^	*	*
4.B] 4.e]	[4.E	4E/	16g#LL 16b	.
.	.	.	16e 16g# 16b	<
.	.	.	16e 16g# 16b	.
.	.	.	16e 16g# 16b	.
.	.	[8BB\	16e 16g# 16b	.
.	.	.	16eJJ 16g# 16b	.
*	*v	*v	*	*
=	=	=	=
4.BB_ 4.E]	4EE	16eLL 16g# 16b	] > mp
.	.	16e 16g# 16b	.
.	.	16e 16g# 16b	.
.	.	16e 16g# 16b	.
.	[8BBB)	16e 16g# 16b	.
.	.	16eJJ 16g# 16b	.
*v	*v	*	*
=	=	=
*-	*-	*-
!!!system-decoration: {(s1,s2)}
